icons/svgs/venus-solid.svg

<svg width="24" height="24" viewBox="0 0 24 24" fill="none" xmlns="http://www.w3.org/2000/svg">
<path d="M8.125 8.875C8.125 10.4766 8.94531 11.8828 10.3125 12.6641C11.6406 13.4844 13.3203 13.4844 14.6875 12.6641C16.0156 11.8828 16.875 10.4766 16.875 8.875C16.875 7.3125 16.0156 5.90625 14.6875 5.125C13.3203 4.30469 11.6406 4.30469 10.3125 5.125C8.94531 5.90625 8.125 7.3125 8.125 8.875ZM13.75 15.6719V17H15C15.6641 17 16.25 17.5859 16.25 18.25C16.25 18.9531 15.6641 19.5 15 19.5H13.75V20.75C13.75 21.4531 13.1641 22 12.5 22C11.7969 22 11.25 21.4531 11.25 20.75V19.5H10C9.29688 19.5 8.75 18.9531 8.75 18.25C8.75 17.5859 9.29688 17 10 17H11.25V15.6719C8.04688 15.0859 5.625 12.2734 5.625 8.875C5.625 5.08594 8.67188 2 12.5 2C16.2891 2 19.375 5.08594 19.375 8.875C19.375 12.2734 16.9141 15.0859 13.75 15.6719Z" fill="black"/>
</svg>

<svg xmlns="http://www.w3.org/2000/svg" width="24" height="24" fill="currentColor" class="icon-venus-solid" viewBox="0 0 24 24">
  <mask id="a" width="15" height="20" x="5" y="2" maskUnits="userSpaceOnUse" style="mask-type:alpha">
    <path d="M8.125 8.875c0 1.602.82 3.008 2.188 3.79 1.328.82 3.007.82 4.374 0 1.329-.782 2.188-2.188 2.188-3.79 0-1.562-.86-2.969-2.187-3.75-1.368-.82-3.047-.82-4.376 0a4.29 4.29 0 0 0-2.187 3.75m5.625 6.797V17H15c.664 0 1.25.586 1.25 1.25 0 .703-.586 1.25-1.25 1.25h-1.25v1.25c0 .703-.586 1.25-1.25 1.25-.703 0-1.25-.547-1.25-1.25V19.5H10c-.703 0-1.25-.547-1.25-1.25 0-.664.547-1.25 1.25-1.25h1.25v-1.328c-3.203-.586-5.625-3.399-5.625-6.797A6.86 6.86 0 0 1 12.5 2c3.79 0 6.875 3.086 6.875 6.875 0 3.398-2.46 6.21-5.625 6.797"/>
  </mask>
  <g mask="url(#a)">
    <path d="M0 0h24v24H0z"/>
  </g>
</svg>
